src/assets/outline/Wallet3.svg

<svg width="24" height="24" viewBox="0 0 24 24"  xmlns="http://www.w3.org/2000/svg">
<path d="M13 11.9H7C6.59 11.9 6.25 11.56 6.25 11.15C6.25 10.74 6.59 10.4 7 10.4H13C13.41 10.4 13.75 10.74 13.75 11.15C13.75 11.56 13.41 11.9 13 11.9Z" />
<path d="M2 11.9001C1.59 11.9001 1.25 11.5601 1.25 11.1501V6.53009C1.25 4.08009 3.24 2.09009 5.69 2.09009H11.31C13.88 2.09009 15.75 3.80009 15.75 6.15009C15.75 6.56009 15.41 6.90009 15 6.90009C14.59 6.90009 14.25 6.56009 14.25 6.15009C14.25 4.39009 12.72 3.59009 11.31 3.59009H5.69C4.07 3.59009 2.75 4.91009 2.75 6.53009V11.1501C2.75 11.5701 2.41 11.9001 2 11.9001Z" />
<path d="M16 21.9H6C3.38 21.9 1.25 19.77 1.25 17.15V10.15C1.25 7.53002 3.38 5.40002 6 5.40002H16C18.62 5.40002 20.75 7.53002 20.75 10.15V11.6C20.75 12.01 20.41 12.35 20 12.35H18.92C18.57 12.35 18.25 12.48 18.02 12.72L18.01 12.73C17.68 13.06 17.55 13.52 17.67 13.97C17.82 14.53 18.41 14.94 19.07 14.94H20C20.41 14.94 20.75 15.28 20.75 15.69V17.14C20.75 19.77 18.62 21.9 16 21.9ZM6 6.90002C4.21 6.90002 2.75 8.36002 2.75 10.15V17.15C2.75 18.94 4.21 20.4 6 20.4H16C17.79 20.4 19.25 18.94 19.25 17.15V16.45H19.07C17.72 16.45 16.55 15.6 16.22 14.37C15.96 13.4 16.24 12.37 16.95 11.67C17.47 11.14 18.17 10.85 18.92 10.85H19.25V10.15C19.25 8.36002 17.79 6.90002 16 6.90002H6Z" />
<path d="M20.9699 16.45H19.0399C17.5299 16.45 16.2499 15.33 16.1299 13.89C16.0499 13.06 16.3499 12.25 16.9499 11.66C17.4499 11.14 18.1599 10.85 18.9099 10.85H20.9599C21.9399 10.85 22.7399 11.64 22.7399 12.62V14.68C22.7499 15.66 21.9499 16.45 20.9699 16.45ZM18.9199 12.35C18.5699 12.35 18.2499 12.48 18.0199 12.72C17.7299 13 17.5899 13.38 17.6299 13.76C17.6799 14.42 18.3199 14.95 19.0399 14.95H20.9699C21.1199 14.95 21.2499 14.83 21.2499 14.68V12.62C21.2499 12.47 21.1199 12.35 20.9699 12.35H18.9199Z" />
</svg>

<?xml version="1.0" encoding="UTF-8"?>
<svg width="24" height="24" viewBox="0 0 24 24" xmlns="http://www.w3.org/2000/svg">
 <path d="m13 11.9h-6c-0.41 0-0.75-0.34-0.75-0.75s0.34-0.75 0.75-0.75h6c0.41 0 0.75 0.34 0.75 0.75s-0.34 0.75-0.75 0.75z"/>
 <path d="m2 11.9c-0.41 0-0.75-0.34-0.75-0.75v-4.62c0-2.45 1.99-4.44 4.44-4.44h5.62c2.57 0 4.44 1.71 4.44 4.06 0 0.41-0.34 0.75-0.75 0.75s-0.75-0.34-0.75-0.75c0-1.76-1.53-2.56-2.94-2.56h-5.62c-1.62 0-2.94 1.32-2.94 2.94v4.62c0 0.42-0.34 0.75-0.75 0.75z"/>
 <path d="m16 21.9h-10c-2.62 0-4.75-2.13-4.75-4.75v-7c0-2.62 2.13-4.75 4.75-4.75h10c2.62 0 4.75 2.13 4.75 4.75v1.45c0 0.41-0.34 0.75-0.75 0.75h-1.08c-0.35 0-0.67 0.13-0.9 0.37l-0.01 0.01c-0.33 0.33-0.46 0.79-0.34 1.24 0.15 0.56 0.74 0.97 1.4 0.97h0.93c0.41 0 0.75 0.34 0.75 0.75v1.45c0 2.63-2.13 4.76-4.75 4.76zm-10-15c-1.79 0-3.25 1.46-3.25 3.25v7c0 1.79 1.46 3.25 3.25 3.25h10c1.79 0 3.25-1.46 3.25-3.25v-0.7h-0.18c-1.35 0-2.52-0.85-2.85-2.08-0.26-0.97 0.02-2 0.73-2.7 0.52-0.53 1.22-0.82 1.97-0.82h0.33v-0.7c0-1.79-1.46-3.25-3.25-3.25h-10z"/>
 <path d="m20.97 16.45h-1.93c-1.51 0-2.79-1.12-2.91-2.56-0.08-0.83 0.22-1.64 0.82-2.23 0.5-0.52 1.21-0.81 1.96-0.81h2.05c0.98 0 1.78 0.79 1.78 1.77v2.06c0.01 0.98-0.79 1.77-1.77 1.77zm-2.05-4.1c-0.35 0-0.67 0.13-0.9 0.37-0.29 0.28-0.43 0.66-0.39 1.04 0.05 0.66 0.69 1.19 1.41 1.19h1.93c0.15 0 0.28-0.12 0.28-0.27v-2.06c0-0.15-0.13-0.27-0.28-0.27h-2.05z"/>
</svg>
